X: 26097
T: McFadden's Handsome Daughter
R: reel
M: 4/4
K: Amajor
|:~E3F ~A2cA|BABc ecBA|~E3F ~A2af|1 ecBd cA~AF:|2 ecBd cA~A2||
aece ~f2af|edcA BAFA|agfe fgaf|edcB ABce|
aece aecA|~B2cA BAFA|agfe fgaf|edcB ABcd||
|:~e3f ec ~c2|ecac bB~B2|cefg ~a2af|1 ecBd cA~A2:|2 ecBd cA~AF||

